!!!!SEGMENT: pl-wnifc--6802-n--004_worobecki-jozef--mazur-no-3.krn
!!!cenid: 18xx:4052
!!!COM: Worobecki, Józef
!!!COM-rismID: pe50048108
!!!CDT:
!!!CNT:
!!!OTL: Mazur No. 3
!!!PDT:
!!!AGN:
!!!SMS-siglum: PL-Wnifc
!!!SMS-shelfmark: 6802/n
!!!SMS-shelfwork: 004 W
!!!SMS-variant:
!!!SMS-altvar:
!!!NIFC-rismSourceID: 1001158026
!!!NIFC-rismChildID: 1001158026
!!!NIFC-islandoraID: nifc:213559
!!!URL-pdf-islandora: https://repozytorium.nifc.pl/islandora/object/nifc%3A213559/datastream/PDF/view
!!!URL-scan: https://polish.musicsources.pl/pl/lokalizacje/galeria/druki-muzyczne/16922-3-mazury/4 @EN{Scan on Polish Music Sources Website} @PL{Skany w portalu Dziedzictwo Muzyki Polskiej w otwartym dostępie}
!!!ONB-nifc: UWAGA: w zbiorze: 1. Introdukcja, 2. Mazur No. 1, 3. Mazur No. 2, 4. Mazur No. 3, 5. Coda
!!!AIN: 2 piano
!!!key: D
**kern	**kern	**dynam
*part2	*part1	*part1
*staff2	*staff1	*
*I"Piano	*I"Piano	*
*I'pf	*I'pf	*
*ICklav	*ICklav	*
*Ipiano	*Ipiano	*
*clefF4	*clefG2	*
*k[f#c#]	*k[f#c#]	*
*D:	*D:	*
*M3/8	*M3/8	*
=1	=1	=1
!	!LO:TX:t=[segno]:problem:znak segno na kresce taktowej	!
!	!LO:TX:a:i:t=energico.	!
8DD\L 8D	8dd:\L 8ff#: 8aa: 8ddd:	fp
8A\ 8d 8f#	16ff#\L	.
.	16gg\	.
8FF#\J 8F#	16aa\	.
.	16aa#X\JJ	.
=2	=2	=2
8GG\L 8G	16.bb\LL	.
.	32aan\JJk	.
8G\ 8B 8e	8.gg^^\L	.
8G\J 8B 8e	.	.
.	16ff#\Jk	.
=3	=3	=3
8AA\L 8A	(16.ee/LL	.
.	32cc#/K	.
8A\ 8e 8g	16.a/	.
.	32a/K	.
8A\J 8e 8g	16.b/	.
.	32cc#/JJk)	.
!!LO:LB:g=original	!	!
=4	=4	=4
8DD\L 8D	(16.dd\LL	.
.	32cc#\K	.
8A\ 8d 8f#	16.dd\	.
.	32ff#\K	.
8A\J 8d 8f#	16.bb\	.
.	32aa\JJk)	.
=5	=5	=5
8DD\L 8D	8dd:\L 8ff#: 8aa: 8ddd:	fp
8A\ 8d 8f#	(16ff#\L	.
.	16gg\	.
8FF#\J 8F#	16aa\	.
.	16aa#X\JJ)	.
=6	=6	=6
8GG\L 8G	(16.bb\LL	.
.	32aan\JJk	.
8G\ 8B 8e	8.gg\L	.
8G\J 8B 8e	.	.
.	16ff#\Jk)	.
=7	=7	=7
8AA\L 8A	(16ee\LL	.
.	16ff#\	.
8A\ 8c# 8g	16gg\	.
.	16bb\	.
8A\J 8e 8g	16.aa\	.
.	32cc#\JJk)	.
!!LO:LB:g=original	!	!
=8	=8	=8
8d\ 8f#	(16ee\LL	.
.	16dd\JJ)	.
!	!LO:TX:B:i:b:t=fine	!
4DD/ 4D	4f#\ 4dd	.
=9!|:	=9!|:	=9!|:
!	!LO:TX:i:b:t=inf	!
8EE\L 8E	(16.g#X\LL	.
.	32a\K	.
8E\ 8G#X 8d	16.b\	.
.	32cc#\K	.
8E\J 8G# 8d	16.dd\	.
.	32ff#\JJk)	.
=10	=10	=10
8AA\L 8A	16.ee\LL	.
.	32cc#\JJk 32ee	.
8E\ 8A 8c#	8a\L 8cc#	.
8E\J 8A 8c#	8a^<\J 8cc# 8aa	.
=11	=11	=11
8EE\L 8E	(16.gg#X\LL	.
.	32ff#\JJk)	.
8E\ 8G#X 8d	8.dd^<\L	.
8E\J 8G# 8d	.	.
.	16b\Jk	.
=12	=12	=12
8AA\L 8A	(16.ff#\LL	.
.	32ee\JJk)	.
8E\ 8A 8c#	8.cc#^<\L	.
8E\J 8A 8c#	.	.
.	16a\Jk	.
!!LO:LB:g=original	!	!
=13	=13	=13
8EE\L 8E	(16.g#X\LL	f
.	32a\K	.
8E\ 8G#X 8d	16.b\	.
.	32cc#\K	.
8E\J 8G# 8d	16.dd\	.
.	32ff#\JJk)	.
=14	=14	=14
*	*Xtuplet	*
!	!LO:TUP:a:problem:klamra łukowa	!
8AA\L 8A	24ee\LL	.
.	24ff#\	.
.	24ee\JJ	.
8E\ 8A 8c#	(16.dd#X\LL	.
.	32ee\K	.
8E\J 8A 8c#	16.aa\	.
.	32ccc#\JJk	.
=15	=15	=15
8EE\L 8E	16ee\LL 16eee	.
.	16dd#X\JJ) 16ddd#X	.
8E\ 8G#X 8d	8.ddn\L 8.dddn	.
8E\J 8B 8d	.	.
.	16gg#X\Jk	.
=16	=16	=16
8AAA/ 8AA	16aa\LL	<
.	32bb\L	.
.	(32aa\JJJ	.
!LO:TX:b:i:B:t=d.S. al Fine.	!	!
4A\ 4en 4g	16.gg#X\LL	.
.	32aa\K	.
.	16.bb\	.
.	32ccc#\JJk)	[[
=17:|!	=17:|!	=17:|!
!	!LO:TX:i:a:t=flebile.	!
!	!LO:TX:B:a:t=Trio	!
8BBB/L 8BB	16.ff#\LL	p
.	32ff#\JJk	.
8F#\ 8B 8d	8dd\L	.
8F#\J 8B 8d	16b\L	.
.	16dd\JJ	.
=18	=18	=18
8FF#\L 8F#	(16cc#\LL	.
.	16a#X\JJ	.
8F#\ 8c# 8e	8f#/L	.
8F#\J 8c# 8e	16g#X/L)	.
.	16a#/JJ	.
=19	=19	=19
!LO:TX:a:t=P:problem:mixed beam	!	!
8BBB/L 8BB	(16b\LL	<
.	16a#X\	.
8F#\ 8B 8d	16b\	.
.	16cc#\	.
8GGG/J 8GG	16dd\	.
.	16ee\JJ)	[[
!!LO:PB:g=original	!	!
=20	=20	=20
.	8qgg/	.
8FFF#/L 8FF#	16.ff#\LL	.
.	32ee#X\JJk	.
8F#\ 8A#X 8c#	4ff#\	.
8F#\J 8A# 8c#	.	.
=21	=21	=21
8BBB/L 8BB	24ff#\LL	f
.	24gg\	.
.	24ff#\JJ	.
8F#\ 8B 8d	16.ee\LL	.
.	32dd\K	.
8F#\J 8B 8d	16.cc#\	.
.	32b\JJk	.
=22	=22	=22
8EE\L 8E	16.gg\LL	.
.	32ff#\JJk	.
8E\ 8G 8c#	8.ee^<\L	.
8E\J 8G 8c#	.	.
.	16dd\Jk	.
=23	=23	=23
.	8qdd/	.
*	*tuplet	*
!	!LO:TUP:a:problem:klamra łukowa	!
8FF#\L 8F#	24cc#\LL	.
.	24b#X\	.
.	24cc#\JJ	.
8F#\ 8c# 8e	8.ff#^<\L	.
8F#\J 8c# 8e	.	.
.	16a#X\Jk	.
=24	=24	=24
8B\ 8d	8b\	.
!LO:TX:B:i:b:t=Mazur d.C.a F.	!	!
4BBB/ 4BB	4b\ 4dd 4bb	.
==	==	==
*-	*-	*-
!!!system-decoration: {(s1,s2)}
!!!RDF**kern: > = above
!!!RDF**kern: < = below
!!!ENC: Berenika Jozajtis
!!!END: 2022-08-15
!!!ENC: Jan Barakat
!!!END: 2022-09-15
!!!YEC: Copyright 2022 Narodowy Instytut Fryderyka Chopina (https://polishscores.org)
!!!YEM: License CC-BY-4.0 (https://creativecommons.org/licenses/by/4.0)
